icons/azure.svg

<svg width="16" height="16" viewBox="0 0 16 16" fill="none" xmlns="http://www.w3.org/2000/svg">
<path d="M6.3285 3H9.469L6.20898 12.6594C6.17547 12.7586 6.11166 12.8449 6.02654 12.906C5.94142 12.9671 5.83928 13 5.73449 13H3.29047C3.21108 13 3.13284 12.9811 3.0622 12.9449C2.99157 12.9086 2.93058 12.8561 2.88429 12.7916C2.83799 12.7271 2.80771 12.6525 2.79596 12.574C2.7842 12.4955 2.79132 12.4153 2.8167 12.3401L5.85401 3.34064C5.88752 3.24135 5.95132 3.15508 6.03645 3.09397C6.12157 3.03286 6.22372 2.99999 6.3285 3Z" fill="url(#paint0_linear_1340_2)"/>
<path d="M10.8921 9.47885H5.91203C5.86574 9.47884 5.82052 9.49277 5.78226 9.51881C5.744 9.54485 5.71446 9.58181 5.69749 9.62487C5.68052 9.66794 5.6769 9.71511 5.68711 9.76026C5.69732 9.8054 5.72088 9.84643 5.75473 9.878L8.95483 12.8647C9.04797 12.9516 9.17064 13 9.29805 13H12.1178L10.8921 9.47885Z" fill="#2269A0"/>
<path d="M6.3285 3C6.22259 2.99961 6.11932 3.03308 6.03377 3.09554C5.94823 3.158 5.8849 3.24617 5.85301 3.34717L2.82047 12.332C2.79338 12.4075 2.78488 12.4884 2.79568 12.5678C2.80647 12.6473 2.83625 12.723 2.88249 12.7885C2.92873 12.8541 2.99008 12.9075 3.06134 12.9443C3.1326 12.9811 3.21167 13.0002 3.29187 13H5.79899C5.8924 12.9833 5.9797 12.9421 6.05197 12.8807C6.12424 12.8192 6.1789 12.7396 6.21035 12.6501L6.81497 10.868L8.97514 12.8827C9.06566 12.9576 9.17921 12.999 9.29669 13H12.106L10.8738 9.47885L7.28193 9.47967L9.48043 3H6.3285Z" fill="url(#paint1_linear_1340_2)"/>
<path d="M10.3397 3.34009C10.3062 3.24097 10.2425 3.15484 10.1576 3.09383C10.0726 3.03282 9.97059 3 9.86598 3H6.36597C6.47059 3 6.57258 3.03281 6.65757 3.09383C6.74256 3.15484 6.80627 3.24097 6.83974 3.34009L9.87723 12.3401C9.90261 12.4153 9.90972 12.4955 9.89797 12.574C9.88622 12.6525 9.85594 12.7271 9.80964 12.7916C9.76334 12.8561 9.70236 12.9086 9.63173 12.9448C9.56109 12.9811 9.48285 13 9.40346 13H12.9035C12.9829 13 13.0611 12.9811 13.1317 12.9448C13.2023 12.9086 13.2633 12.856 13.3096 12.7916C13.3559 12.7271 13.3862 12.6525 13.3979 12.574C13.4097 12.4955 13.4026 12.4153 13.3772 12.3401L10.3397 3.34009Z" fill="url(#paint2_linear_1340_2)"/>
<defs>
<linearGradient id="paint0_linear_1340_2" x1="7.47316" y1="3.74101" x2="4.21169" y2="13.3762" gradientUnits="userSpaceOnUse">
<stop stop-color="#2166B5"/>
<stop offset="1" stop-color="#3AA3FC"/>
</linearGradient>
<linearGradient id="paint1_linear_1340_2" x1="8.49199" y1="8.23124" x2="7.73751" y2="8.48633" gradientUnits="userSpaceOnUse">
<stop stop-opacity="0"/>
<stop offset="0.071" stop-opacity="0.2"/>
<stop offset="0.321" stop-opacity="0.1"/>
<stop offset="0.623" stop-opacity="0.05"/>
<stop offset="1" stop-opacity="0"/>
</linearGradient>
<linearGradient id="paint2_linear_1340_2" x1="8.07706" y1="3.45993" x2="11.6571" y2="12.9981" gradientUnits="userSpaceOnUse">
<stop stop-color="#5FDBFF"/>
<stop offset="1" stop-color="#2892DF"/>
</linearGradient>
</defs>
</svg>

<svg xmlns="http://www.w3.org/2000/svg" width="16" height="16" fill="none"><path fill="url(#a)" d="M6.329 3h3.14l-3.26 9.66a.501.501 0 0 1-.475.34H3.29a.5.5 0 0 1-.473-.66l3.037-9A.5.5 0 0 1 6.328 3Z"/><path fill="#2269A0" d="M10.892 9.479h-4.98a.23.23 0 0 0-.157.399l3.2 2.987a.503.503 0 0 0 .343.135h2.82l-1.226-3.521Z"/><path fill="url(#b)" d="M6.329 3a.497.497 0 0 0-.476.347L2.82 12.332a.5.5 0 0 0 .472.668h2.507a.537.537 0 0 0 .411-.35l.605-1.782 2.16 2.015c.09.075.204.116.322.117h2.809l-1.232-3.521H7.282L9.48 3H6.328Z"/><path fill="url(#c)" d="M10.34 3.34A.5.5 0 0 0 9.866 3h-3.5a.5.5 0 0 1 .474.34l3.037 9a.5.5 0 0 1-.474.66h3.5a.499.499 0 0 0 .474-.66l-3.037-9Z"/><defs><linearGradient id="a" x1="7.473" x2="4.212" y1="3.741" y2="13.376" gradientUnits="userSpaceOnUse"><stop stop-color="#2166B5"/><stop offset="1" stop-color="#3AA3FC"/></linearGradient><linearGradient id="b" x1="8.492" x2="7.738" y1="8.231" y2="8.486" gradientUnits="userSpaceOnUse"><stop stop-opacity="0"/><stop offset=".071" stop-opacity=".2"/><stop offset=".321" stop-opacity=".1"/><stop offset=".623" stop-opacity=".05"/><stop offset="1" stop-opacity="0"/></linearGradient><linearGradient id="c" x1="8.077" x2="11.657" y1="3.46" y2="12.998" gradientUnits="userSpaceOnUse"><stop stop-color="#5FDBFF"/><stop offset="1" stop-color="#2892DF"/></linearGradient></defs></svg>
